tools/download-figma-icons/icons/outlined-large/headset.svg

<svg width="64" height="64" viewBox="0 0 64 64" fill="none" xmlns="http://www.w3.org/2000/svg">
<path fill-rule="evenodd" clip-rule="evenodd" d="M51.5 42.898V21.1022C56.8579 21.8352 60.9999 26.4432 60.9999 32.0001C60.9999 37.5561 56.8579 42.164 51.5 42.898ZM35.0001 60.9999H29.0001C27.6212 60.9999 26.5002 59.8779 26.5002 58.4999C26.5002 57.1209 27.6212 55.9999 29.0001 55.9999H35.0001C36.3791 55.9999 37.5001 57.1209 37.5001 58.4999C37.5001 59.8779 36.3791 60.9999 35.0001 60.9999ZM51.428 18.0722C50.691 7.98631 42.271 0.000366208 32.0001 0.000366208C21.7292 0.000366208 13.3093 7.98631 12.5723 18.0722C5.52132 18.7892 0.000366208 24.7622 0.000366208 32.0001C0.000366208 39.7191 6.28032 46 14.0003 46C14.8283 46 15.5002 45.328 15.5002 44.5C15.5002 43.671 14.8283 43 14.0003 43C7.93531 43 3.00034 38.0651 3.00034 32.0001C3.00034 26.4432 7.14231 21.8352 12.5003 21.1022V38.5001C12.5003 39.3281 13.1723 40.0001 14.0003 40.0001C14.8283 40.0001 15.5002 39.3281 15.5002 38.5001V19.5002C15.5002 10.4013 22.9022 3.00034 32.0001 3.00034C41.0981 3.00034 48.5 10.4013 48.5 19.5002V50.501C48.5 54.085 45.584 56.9999 42 56.9999H40.2871C39.6311 54.6949 37.5121 53 35.0001 53H29.0001C25.9682 53 23.5002 55.4669 23.5002 58.4999C23.5002 61.5319 25.9682 63.9999 29.0001 63.9999H35.0001C37.5121 63.9999 39.6311 62.3039 40.2871 59.9999H42C47.238 59.9999 51.5 55.7379 51.5 50.501V45.919C58.5179 45.169 63.9999 39.2121 63.9999 32.0001C63.9999 24.7622 58.4789 18.7892 51.428 18.0722Z" fill="black"/>
</svg>

<svg width="64" height="64" viewBox="0 0 64 64" fill="none" xmlns="http://www.w3.org/2000/svg"><path fill-rule="evenodd" clip-rule="evenodd" d="M51.5 42.898V21.102C56.858 21.835 61 26.443 61 32c0 5.556-4.142 10.164-9.5 10.898ZM35 61h-6a2.503 2.503 0 0 1-2.5-2.5c0-1.38 1.121-2.5 2.5-2.5h6a2.5 2.5 0 0 1 0 5Zm16.428-42.928C50.691 7.986 42.271 0 32 0 21.73 0 13.31 7.986 12.572 18.072 5.522 18.79 0 24.762 0 32c0 7.72 6.28 14 14 14a1.5 1.5 0 0 0 0-3C7.935 43 3 38.065 3 32c0-5.557 4.142-10.165 9.5-10.898V38.5a1.5 1.5 0 0 0 3 0v-19C15.5 10.401 22.902 3 32 3c9.098 0 16.5 7.401 16.5 16.5v31.001A6.507 6.507 0 0 1 42 57h-1.713c-.656-2.305-2.775-4-5.287-4h-6a5.506 5.506 0 0 0-5.5 5.5c0 3.032 2.468 5.5 5.5 5.5h6c2.512 0 4.631-1.696 5.287-4H42c5.238 0 9.5-4.262 9.5-9.499v-4.582C58.518 45.169 64 39.212 64 32c0-7.238-5.521-13.21-12.572-13.928Z" fill="currentColor"/></svg>
